public/assets/cost-icon.svg

<svg width="26" height="25" viewBox="0 0 26 25" fill="none" xmlns="http://www.w3.org/2000/svg">
<path d="M4.38409 16.1675L24.8184 16.1675L24.8184 3.17467L4.38409 3.17467L4.38409 16.1675Z" fill="#A5C352" stroke="#A5C352" stroke-width="0.7673" stroke-miterlimit="10"/>
<path d="M1.18095 20.9531L21.6152 20.9531L21.6152 7.96031L1.18095 7.96031L1.18095 20.9531Z" fill="#006D68"/>
<path d="M11.7772 13.8999C10.8968 13.5233 10.6188 13.2879 10.6188 12.8642C10.6188 12.5347 10.8505 12.111 11.5455 12.111C12.1942 12.111 12.5649 12.3464 12.7502 12.4405L12.8429 12.4876L13.1673 11.5932L13.0746 11.5461C12.7039 11.3107 12.3332 11.2166 11.8235 11.1695V10.1809H10.9895V11.2166C10.0628 11.4049 9.50671 12.0639 9.50671 12.9113C9.50671 13.9469 10.3408 14.4177 11.2212 14.7472C11.9625 15.0768 12.2869 15.3592 12.2869 15.83C12.2869 16.3478 11.8699 16.7244 11.2212 16.7244C10.7578 16.7244 10.2481 16.5832 9.87742 16.3007L9.73839 16.2066L9.41406 17.101L9.46039 17.1481C9.83108 17.3834 10.3871 17.5717 10.9432 17.6188V18.6545H11.7772V17.5717C12.8429 17.3364 13.3526 16.5361 13.3526 15.7829C13.3526 14.9355 12.8893 14.3706 11.7772 13.8999Z" fill="white"/>
</svg>

<svg xmlns="http://www.w3.org/2000/svg" width="26" height="25" fill="none" viewBox="0 0 26 25"><path fill="#a5c352" stroke="#a5c352" stroke-miterlimit="10" stroke-width=".767" d="M4.384 16.168h20.434V3.175H4.384z"/><path fill="#006d68" d="M1.181 20.953h20.434V7.96H1.181z"/><path fill="#fff" d="M11.777 13.9c-.88-.377-1.158-.612-1.158-1.036 0-.33.232-.753.927-.753.648 0 1.019.235 1.204.33l.093.047.324-.895-.092-.047c-.371-.235-.742-.33-1.251-.377v-.988h-.835v1.036c-.926.188-1.482.847-1.482 1.694 0 1.036.834 1.507 1.714 1.836.742.33 1.066.612 1.066 1.083 0 .518-.417.894-1.066.894-.463 0-.973-.14-1.344-.423l-.139-.094-.324.894.046.047c.371.235.927.424 1.483.47v1.037h.834v-1.083c1.066-.236 1.576-1.036 1.576-1.79 0-.847-.464-1.411-1.576-1.882"/></svg>
